X: 227
T: Omni die dic Mariae
C: Anonim
L: 1/4
M: 3/2
N: Derived from pl-kk--kk-i-220--002_anonim--omni-die-dic-mariae.krn
K: F clef=bass
G,4F,2 | 
B,4B,2 | 
F,4G,2 | 
D,4D,2 | 
B,,4_E,2 | 
C,4D,2- | 
D,_E,F,2F,,2 | 
B,,6 | 
B,4B,2 | 
F,4F,2 | 
G,4G,2 | 
D,4D,2 | 
G,2>A,2G,2 | 
C,2D,3D, | 
G,,6 ||  
[M:C]_E,D,E,B,, | 
F,=E,F,C, | 
G,^F,G,C, | 
D,>D,G,,2 | 
C,/D,/ _E,/F,/G,G, | 
_E,/F,/ G,/A,/B,B,, | 
G,G,_A,A, | 
B,>B,,_E,2 | 
D,D,_E,E, | 
F,>F,,B,,2 |]  

